X: 27208
T: Miss Ramsey
R: reel
M: 4/4
K: Dmajor
D3A AGFG|ADAB AGFA|~D2AB AGFA|1 B2AF GBAF:|2 B2AF D3e||
f2df eAce|dedA Bcde|fd (3Bcd eAce|dBAG FADA|
efdf eAce|dedA Bcde|fdec dBAB|dBAG FAEA||
|:(3Bcd fa ~a2fa|gbaf gfef|(3Bcd fa ~a2fa|1 gbag e3A:|2 gbag eaag||
f2df eAce|dedA Bcde|fd (3Bcd eAce|dBAG FADA|
efdf eAce|dedA Bcde|fdec dBAB|dBAG FAEA||

